svgs/sharp-light/diagram-lean-canvas.svg

<svg xmlns="http://www.w3.org/2000/svg" viewBox="0 0 640 512"><!--! Font Awesome Pro 6.6.0 by @fontawesome - https://fontawesome.com License - https://fontawesome.com/license (Commercial License) Copyright 2024 Fonticons, Inc. --><path d="M512 64l0 256 96 0 0-256-96 0zm-32 0l-96 0 0 128 96 0 0-128zM352 64l-64 0 0 256 64 0 0-256zm-96 0l-96 0 0 128 96 0 0-128zM128 64L32 64l0 256 96 0 0-256zM32 352l0 96 272 0 0-96L32 352zm304 96l272 0 0-96-272 0 0 96zM0 32l32 0 576 0 32 0 0 32 0 384 0 32-32 0L32 480 0 480l0-32L0 64 0 32zM256 320l0-96-96 0 0 96 96 0zm224-96l-96 0 0 96 96 0 0-96z"/></svg>

<svg xmlns="http://www.w3.org/2000/svg" viewBox="0 0 640 512"><!--! Font Awesome Pro 6.4.0 by @fontawesome - https://fontawesome.com License - https://fontawesome.com/license (Commercial License) Copyright 2023 Fonticons, Inc. --><path d="M512 64V320h96V64H512zm-32 0H384V192h96V64zM352 64H288V320h64V64zm-96 0H160V192h96V64zM128 64H32V320h96V64zM32 352v96H304V352H32zm304 96H608V352H336v96zM0 32H32 608h32V64 448v32H608 32 0V448 64 32zM256 320V224H160v96h96zm224-96H384v96h96V224z"/></svg>
